X: 13206
T: Fish On
R: reel
M: 4/4
K: Amajor
e2dc BA eA|daag fedA|d2fd gfed|c2e2 feed|
e2dc BA eA|daag fedA|d2fd gfed|eaed cBA2:|
A,2AG EGAE|D2D=C B,G,A,B,|A,2AG EGAB|^cAdc AGED|
[1 A,2AG EGAE|D2D=C B,G,DC|A,2AG EGAB|^cAdc A2AG:|
[2 A,2AG EGAE|D2D=C B,G,DC|D2D=C B,G,AB|^cAdc ABcd||

